X:2972
T:Je n'avais pas dix ans (G. Hervieux) - Rond de St.Vincent
O:england
C:Perroches "an droug hirnez"
C:Robert Tablatures
N:ternair
M:4/4
L:1/8
K:G
E|EE A2 A2 GG|ABcA B2AG|FEA2 A2GG|ABcA B2A2:|
|:AAc2 c2B2|AABA GFEE|EEA2 A2GG|ABcd B2A2:|


